X:1
T:Boating on a Bullhead
M:2/4
L:1/8
K:C
 G/2G/2| CC EF|G-E FD| EC DB,| C3 G/2G/2| cc c/2c/2 d|c-c GA| _BBA/2-G/2 F|\
 G3 G/2G/2| cc cd| cc GA| _BBA/2-G/2 F| G3 G/2G/2| CD EF| GE FD| EC DB,|\
 C3||
